X: 661
M: C|
L: 1/8
K: Dm
|:\
|:\
fed2A2 | TF4E2 | D2g2f2 | e>de4 | fdecdB | ^G2B2d2 | c2TB4 | A4 :|
|: A2e2g2 | A2d2f2 | A2g2f2 | (f2e2)A2 | G2F2=c2 | B2c2d2 | g2Te4 | d6 :|

